chinamobile.svg

<?xml version="1.0" encoding="UTF-8" standalone="no"?>
<!DOCTYPE svg PUBLIC "-//W3C//DTD SVG 1.1//EN" "http://www.w3.org/Graphics/SVG/1.1/DTD/svg11.dtd">
<!-- Created with Vectornator (http://vectornator.io/) -->
<svg stroke-miterlimit="10" style="fill-rule:nonzero;clip-rule:evenodd;stroke-linecap:round;stroke-linejoin:round;" version="1.1" viewBox="0 0 24 24" xml:space="preserve" xmlns="http://www.w3.org/2000/svg" xmlns:xlink="http://www.w3.org/1999/xlink">
<defs/>
<g id="Untitled">
<g opacity="1">
<path d="M23.3901 14.7352C21.2766 11.9409 18.1135 9.08979 17.2482 8.3522C16.6525 7.84156 16.0142 7.61461 15.4184 7.61461C14.8227 7.61461 14.2269 7.88411 13.7163 8.30965C13.6312 8.39475 13.4894 8.5366 13.305 8.67844C12.0567 9.74227 8.17021 13.3167 8.07092 13.416C7.80142 13.6855 7.37589 13.8699 6.96454 13.8699C6.59575 13.8699 6.1844 13.6855 5.77305 13.3167C5.50355 13.0472 4.17021 11.9834 2.60993 10.2387C1.64539 9.18908 0.865248 8.22454 0.865248 8.22454C0.865248 8.22454 0.680851 8.59333 0.595745 8.82028C0.510638 9.04724 0.595745 9.14653 0.638298 9.23163C1.14894 9.96922 3.53191 12.8061 6.78014 15.6146C7.37589 16.1252 8.01418 16.3522 8.60993 16.3522C9.20567 16.3522 9.80142 16.0827 10.3121 15.6572C10.3972 15.5721 10.5816 15.4302 10.7234 15.2884C11.9574 14.2387 14.3404 12.0827 15.4468 11.0189C15.6738 10.7919 15.8582 10.6501 15.9574 10.565C16.227 10.2955 16.6525 10.1111 17.0638 10.1111C17.4326 10.1111 17.844 10.2955 18.2553 10.6643C18.9504 11.26 20.0851 12.3096 21.4184 13.6855C22.383 14.7352 23.1631 15.6997 23.1631 15.6997C23.1631 15.6997 23.3475 15.3309 23.4326 15.0614C23.5319 14.9196 23.4326 14.7919 23.3901 14.7352" fill="#95c122" fill-rule="nonzero" opacity="1" stroke="none"/>
<path d="M10.8227 4.46568C9.71631 5.24582 5.21986 9.41603 4.35461 10.4231C4.35461 10.4231 4.99291 11.1182 5.91489 11.8841C6.14184 12.1111 6.46809 12.0685 6.69504 11.799C8.43972 10.0543 11.9716 6.93376 12.4255 6.56497C13.7589 5.41603 15.3192 5.33092 16.7376 6.38057C20.1844 8.94794 23.2482 13.0331 23.7589 13.8132C23.7589 13.8132 23.844 13.4444 23.9007 13.1182C23.9007 13.1182 23.9433 12.7919 23.8156 12.5224C20.5532 7.84156 17.1206 4.94794 15.7872 4.22454C14.3546 3.45858 12.5674 3.17489 10.8227 4.46568" fill="#0e84c7" fill-rule="nonzero" opacity="1" stroke="none"/>
<path d="M7.14894 1.98341C4.95035 3.77064 2.07092 6.43731 1.33333 7.21745C1.33333 7.21745 1.88652 7.91248 2.70922 8.73518C2.89362 8.87702 3.03546 8.82029 3.21986 8.69263C5.41844 6.57915 7.80142 4.38057 9.1773 3.31674C11.5177 1.5295 14.2269 1.34511 16.9362 3.45858C17.9433 4.23872 18.8227 5.01887 20.0993 6.3522C21.7447 8.13943 22.8085 9.65716 24 11.3451C24 11.3451 24 10.8912 23.8582 10.2955C23.8582 10.2104 23.8156 10.026 23.7163 9.88411C23.4894 9.43021 22.4255 7.64298 20.922 5.8983C17.9433 2.40894 16.0567 1.35929 14.8227 0.720994C13.2624-0.115885 10.1418-0.35702 7.14894 1.98341" fill="#0e84c7" fill-rule="nonzero" opacity="1" stroke="none"/>
<path d="M13.1631 19.5579C14.2695 18.7777 18.766 14.6075 19.6312 13.6004C19.6312 13.6004 18.9929 12.9054 18.0709 12.1394C17.844 11.9125 17.5177 11.955 17.2908 12.2245C15.5035 13.9267 11.9716 17.0472 11.5177 17.4018C10.1844 18.5508 8.62411 18.6359 7.20567 17.5862C3.75887 15.0189 0.695035 10.9338 0.184397 10.1536C0.184397 10.1536 0.0992908 10.5224 0.0425532 10.8487C0.0425532 10.8487-8.45456e-09 11.1749 0.12766 11.4444C3.39007 16.1252 6.8227 19.0189 8.15603 19.7423C9.67376 20.565 11.4184 20.7919 13.1631 19.5579" fill="#0e84c7" fill-rule="nonzero" opacity="1" stroke="none"/>
<path d="M16.7943 21.9834C18.9929 20.1962 21.8865 17.5295 22.6241 16.7494C22.6241 16.7494 22.0709 16.0543 21.2482 15.2316C21.0638 15.0898 20.922 15.1465 20.7943 15.2742C18.5957 17.3877 16.2128 19.5862 14.8369 20.6359C12.4965 22.4231 9.78723 22.6075 7.07801 20.494C6.07092 19.7139 5.19149 18.9338 3.91489 17.6004C2.24113 15.8416 1.19149 14.3238 0 12.6359C0 12.6359 0 13.0472 0.141844 13.6855C0.184397 13.7706 0.184397 13.955 0.283688 14.0969C0.510638 14.5508 1.57447 16.338 3.07801 18.1394C6.05674 21.6288 7.94326 22.6784 9.17731 23.3167C10.7376 24.0969 13.9007 24.3664 16.7943 21.9834" fill="#0e84c7" fill-rule="nonzero" opacity="1" stroke="none"/>
</g>
</g>
</svg>

<svg stroke-miterlimit="10" style="fill-rule:nonzero;clip-rule:evenodd;stroke-linecap:round;stroke-linejoin:round" viewBox="0 0 24 24" xml:space="preserve" xmlns="http://www.w3.org/2000/svg"><path d="M23.39 14.735c-2.113-2.794-5.277-5.645-6.142-6.383-.596-.51-1.234-.737-1.83-.737-.595 0-1.191.27-1.702.695-.085.085-.227.227-.411.368-1.248 1.064-5.135 4.639-5.234 4.738-.27.27-.695.454-1.106.454-.37 0-.78-.184-1.192-.553-.27-.27-1.603-1.334-3.163-3.078C1.645 9.189.865 8.225.865 8.225s-.184.368-.27.595c-.084.227 0 .327.043.412.51.737 2.894 3.574 6.142 6.383.596.51 1.234.737 1.83.737.596 0 1.191-.27 1.702-.695.085-.085.27-.227.411-.369a140.73 140.73 0 0 0 4.724-4.27c.227-.226.411-.368.51-.453a1.63 1.63 0 0 1 1.107-.454c.369 0 .78.184 1.191.553.695.596 1.83 1.646 3.163 3.021a47.487 47.487 0 0 1 1.745 2.015s.184-.37.27-.639c.099-.141 0-.27-.043-.326" fill="#95c122"/><path d="M10.823 4.466c-1.107.78-5.603 4.95-6.468 5.957 0 0 .638.695 1.56 1.461.227.227.553.184.78-.085 1.745-1.745 5.277-4.865 5.73-5.234 1.334-1.149 2.894-1.234 4.313-.184 3.446 2.567 6.51 6.652 7.02 7.432 0 0 .086-.369.143-.695 0 0 .042-.326-.085-.596-3.263-4.68-6.695-7.574-8.029-8.297-1.432-.766-3.22-1.05-4.964.24" fill="#0e84c7"/><path d="M7.149 1.983C4.95 3.771 2.07 6.437 1.333 7.217c0 0 .554.695 1.376 1.518.185.142.326.085.51-.042 2.2-2.114 4.582-4.312 5.958-5.376 2.34-1.788 5.05-1.972 7.76.142 1.006.78 1.886 1.56 3.162 2.893C21.745 8.14 22.81 9.657 24 11.345c0 0 0-.454-.142-1.05a.834.834 0 0 0-.142-.41c-.227-.455-1.29-2.242-2.794-3.987-2.979-3.49-4.865-4.539-6.1-5.177-1.56-.837-4.68-1.078-7.673 1.262M13.163 19.558c1.107-.78 5.603-4.95 6.468-5.958 0 0-.638-.695-1.56-1.46-.227-.228-.553-.185-.78.085-1.787 1.702-5.32 4.822-5.773 5.177-1.334 1.149-2.894 1.234-4.312.184C3.759 15.02.695 10.934.184 10.154c0 0-.085.368-.141.695 0 0-.043.326.085.595 3.262 4.681 6.695 7.575 8.028 8.298 1.518.823 3.262 1.05 5.007-.184" fill="#0e84c7"/><path d="M16.794 21.983c2.199-1.787 5.093-4.454 5.83-5.234 0 0-.553-.695-1.376-1.517-.184-.142-.326-.085-.454.042-2.198 2.114-4.581 4.312-5.957 5.362-2.34 1.787-5.05 1.972-7.759-.142-1.007-.78-1.887-1.56-3.163-2.894C2.24 15.842 1.19 14.324 0 12.636c0 0 0 .411.142 1.05.042.085.042.269.142.41.227.455 1.29 2.242 2.794 4.043 2.979 3.49 4.865 4.54 6.1 5.178 1.56.78 4.723 1.05 7.616-1.334" fill="#0e84c7"/></svg>
